assets/icons/log/in.svg

<?xml version="1.0" encoding="UTF-8" standalone="no"?>
<svg
   viewBox="0 0 24 24"
   height="24"
   id="svg7384"
   version="1.1"
   width="24"
   sodipodi:docname="log-in.svg"
   inkscape:version="1.2 (1:1.2.1+202207142221+cd75a1ee6d)"
   xmlns:inkscape="http://www.inkscape.org/namespaces/inkscape"
   xmlns:sodipodi="http://sodipodi.sourceforge.net/DTD/sodipodi-0.dtd"
   xmlns="http://www.w3.org/2000/svg"
   xmlns:svg="http://www.w3.org/2000/svg"
   xmlns:rdf="http://www.w3.org/1999/02/22-rdf-syntax-ns#"
   xmlns:cc="http://creativecommons.org/ns#"
   xmlns:dc="http://purl.org/dc/elements/1.1/">
  <sodipodi:namedview
     id="namedview22"
     pagecolor="#ffffff"
     bordercolor="#666666"
     borderopacity="1.0"
     inkscape:pageshadow="2"
     inkscape:pageopacity="0.0"
     inkscape:pagecheckerboard="0"
     showgrid="true"
     inkscape:snap-page="true"
     inkscape:zoom="28"
     inkscape:cx="5.0357142"
     inkscape:cy="11.160714"
     inkscape:window-width="1920"
     inkscape:window-height="1016"
     inkscape:window-x="0"
     inkscape:window-y="0"
     inkscape:window-maximized="1"
     inkscape:current-layer="svg7384"
     inkscape:showpageshadow="2"
     inkscape:deskcolor="#d1d1d1">
    <inkscape:grid
       type="xygrid"
       id="grid1023" />
  </sodipodi:namedview>
  <metadata
     id="metadata20854">
    <rdf:RDF>
      <cc:Work
         rdf:about="">
        <dc:format>image/svg+xml</dc:format>
        <dc:type
           rdf:resource="http://purl.org/dc/dcmitype/StillImage" />
      </cc:Work>
    </rdf:RDF>
  </metadata>
  <defs
     id="defs7386">
    <linearGradient
       id="linearGradient5606"
       inkscape:swatch="solid">
      <stop
         id="stop5608"
         offset="0"
         style="stop-color:#000000;stop-opacity:1;" />
    </linearGradient>
    <linearGradient
       id="linearGradient4526"
       inkscape:swatch="solid">
      <stop
         id="stop4528"
         offset="0"
         style="stop-color:#ffffff;stop-opacity:1;" />
    </linearGradient>
    <linearGradient
       id="linearGradient3600-4"
       inkscape:swatch="gradient">
      <stop
         id="stop3602-7"
         offset="0"
         style="stop-color:#f4f4f4;stop-opacity:1" />
      <stop
         id="stop3604-6"
         offset="1"
         style="stop-color:#dbdbdb;stop-opacity:1" />
    </linearGradient>
  </defs>
  <g
     id="layer9"
     label="status"
     style="display:inline;stroke-width:0.8"
     transform="matrix(1.25,0,0,1.25,-414.25021,60.75)" />
  <g
     id="layer2"
     style="display:inline;stroke-width:0.8"
     transform="matrix(1.25,0,0,1.25,-112.99996,-398)" />
  <g
     id="layer4"
     style="display:inline;stroke-width:0.8"
     transform="matrix(1.25,0,0,1.25,-112.99996,-398)" />
  <g
     id="g1812"
     style="display:inline;stroke-width:0.8"
     transform="matrix(1.25,0,0,1.25,-112.99996,-398)" />
  <g
     id="g6217"
     style="display:inline;stroke-width:0.8"
     transform="matrix(1.25,0,0,1.25,-112.99996,-398)" />
  <g
     id="layer3"
     style="display:inline;stroke-width:0.8"
     transform="matrix(1.25,0,0,1.25,-112.99996,-398)" />
  <g
     id="g1833"
     style="display:inline;stroke-width:0.8"
     transform="matrix(1.25,0,0,1.25,-112.99996,-398)" />
  <path
     style="color:#000000;font-style:normal;font-variant:normal;font-weight:normal;font-stretch:normal;font-size:medium;line-height:normal;font-family:sans-serif;font-variant-ligatures:none;font-variant-position:normal;font-variant-caps:normal;font-variant-numeric:normal;font-variant-alternates:normal;font-feature-settings:normal;text-indent:0;text-align:start;text-decoration:none;text-decoration-line:none;text-decoration-style:solid;text-decoration-color:#000000;letter-spacing:normal;word-spacing:normal;text-transform:none;writing-mode:lr-tb;direction:ltr;baseline-shift:baseline;text-anchor:start;white-space:normal;shape-padding:0;clip-rule:nonzero;display:inline;overflow:visible;visibility:visible;isolation:auto;mix-blend-mode:normal;color-interpolation:sRGB;color-interpolation-filters:linearRGB;solid-color:#000000;solid-opacity:1;fill:#808080;fill-opacity:1;fill-rule:nonzero;stroke:none;stroke-width:4;stroke-linecap:butt;stroke-linejoin:round;stroke-miterlimit:4;stroke-dasharray:none;stroke-dashoffset:0;stroke-opacity:1;marker:none;color-rendering:auto;image-rendering:auto;shape-rendering:auto;text-rendering:auto;enable-background:accumulate"
     d="m 15.000001,9.5 c 0.950524,0.434575 1.917117,0.919844 2.902342,1.457031 0.975975,0.538488 1.917969,1.095119 2.824219,1.667969 -0.90625,0.561388 -1.848244,1.111916 -2.824219,1.650391 -0.985227,0.537189 -1.9518,1.028644 -2.902342,1.474609 v -2.75 h -9.000001 v -1 h 9.000001 z"
     id="path305" />
  <path
     id="path2614-6"
     style="color:#000000;font-style:normal;font-variant:normal;font-weight:normal;font-stretch:normal;font-size:medium;line-height:normal;font-family:sans-serif;font-variant-ligatures:none;font-variant-position:normal;font-variant-caps:normal;font-variant-numeric:normal;font-variant-alternates:normal;font-feature-settings:normal;text-indent:0;text-align:start;text-decoration:none;text-decoration-line:none;text-decoration-style:solid;text-decoration-color:#000000;letter-spacing:normal;word-spacing:normal;text-transform:none;writing-mode:lr-tb;direction:ltr;baseline-shift:baseline;text-anchor:start;white-space:normal;shape-padding:0;clip-rule:nonzero;display:inline;overflow:visible;visibility:visible;isolation:auto;mix-blend-mode:normal;color-interpolation:sRGB;color-interpolation-filters:linearRGB;solid-color:#000000;solid-opacity:1;fill:#808080;fill-opacity:1;fill-rule:nonzero;stroke:none;stroke-width:4;stroke-linecap:butt;stroke-linejoin:round;stroke-miterlimit:4;stroke-dasharray:none;stroke-dashoffset:0;stroke-opacity:1;marker:none;color-rendering:auto;image-rendering:auto;shape-rendering:auto;text-rendering:auto;enable-background:accumulate"
     d="M 3 3 L 3 21 L 17 21 L 17 15.882812 C 16.664823 16.054015 16.331618 16.220138 16 16.380859 L 16 20 L 4 20 L 4 4 L 16 4 L 16 8.8632812 C 16.331735 9.0209328 16.664817 9.1841266 17 9.3535156 L 17 3 L 3 3 z " />
</svg>

<svg height="24" width="24" xmlns="http://www.w3.org/2000/svg"><path style="color:#000;font-style:normal;font-variant:normal;font-weight:400;font-stretch:normal;font-size:medium;line-height:normal;font-family:sans-serif;font-variant-ligatures:none;font-variant-position:normal;font-variant-caps:normal;font-variant-numeric:normal;font-variant-alternates:normal;font-feature-settings:normal;text-indent:0;text-align:start;text-decoration:none;text-decoration-line:none;text-decoration-style:solid;text-decoration-color:#000;letter-spacing:normal;word-spacing:normal;text-transform:none;writing-mode:lr-tb;direction:ltr;baseline-shift:baseline;text-anchor:start;white-space:normal;shape-padding:0;clip-rule:nonzero;display:inline;overflow:visible;visibility:visible;isolation:auto;mix-blend-mode:normal;color-interpolation:sRGB;color-interpolation-filters:linearRGB;solid-color:#000;solid-opacity:1;fill:gray;fill-opacity:1;fill-rule:nonzero;stroke:none;stroke-width:4;stroke-linecap:butt;stroke-linejoin:round;stroke-miterlimit:4;stroke-dasharray:none;stroke-dashoffset:0;stroke-opacity:1;marker:none;color-rendering:auto;image-rendering:auto;shape-rendering:auto;text-rendering:auto;enable-background:accumulate" d="M15 9.5c.95.435 1.917.92 2.902 1.457a55.14 55.14 0 0 1 2.825 1.668 64.896 64.896 0 0 1-2.825 1.65A53.835 53.835 0 0 1 15 15.75V13H6v-1h9z"/><path style="color:#000;font-style:normal;font-variant:normal;font-weight:400;font-stretch:normal;font-size:medium;line-height:normal;font-family:sans-serif;font-variant-ligatures:none;font-variant-position:normal;font-variant-caps:normal;font-variant-numeric:normal;font-variant-alternates:normal;font-feature-settings:normal;text-indent:0;text-align:start;text-decoration:none;text-decoration-line:none;text-decoration-style:solid;text-decoration-color:#000;letter-spacing:normal;word-spacing:normal;text-transform:none;writing-mode:lr-tb;direction:ltr;baseline-shift:baseline;text-anchor:start;white-space:normal;shape-padding:0;clip-rule:nonzero;display:inline;overflow:visible;visibility:visible;isolation:auto;mix-blend-mode:normal;color-interpolation:sRGB;color-interpolation-filters:linearRGB;solid-color:#000;solid-opacity:1;fill:gray;fill-opacity:1;fill-rule:nonzero;stroke:none;stroke-width:4;stroke-linecap:butt;stroke-linejoin:round;stroke-miterlimit:4;stroke-dasharray:none;stroke-dashoffset:0;stroke-opacity:1;marker:none;color-rendering:auto;image-rendering:auto;shape-rendering:auto;text-rendering:auto;enable-background:accumulate" d="M3 3v18h14v-5.117c-.335.171-.668.337-1 .498V20H4V4h12v4.863c.332.158.665.321 1 .49V3H3z"/></svg>
